remix/Editor/flow-chart.svg

<svg viewBox="0 0 24 24" fill="currentColor" xmlns="http://www.w3.org/2000/svg"><path d="M6 21.5C4.067 21.5 2.5 19.933 2.5 18C2.5 16.067 4.067 14.5 6 14.5C7.5852 14.5 8.92427 15.5539 9.35481 16.9992L15 16.9994V15L17 14.9994V9.24339L14.757 6.99938H9V9.00003H3V3.00003H9V4.99939H14.757L18 1.75739L22.2426 6.00003L19 9.24139V14.9994L21 15V21H15V18.9994L9.35499 19.0003C8.92464 20.4459 7.58543 21.5 6 21.5ZM6 16.5C5.17157 16.5 4.5 17.1716 4.5 18C4.5 18.8285 5.17157 19.5 6 19.5C6.82843 19.5 7.5 18.8285 7.5 18C7.5 17.1716 6.82843 16.5 6 16.5ZM19 17H17V19H19V17ZM18 4.58581L16.5858 6.00003L18 7.41424L19.4142 6.00003L18 4.58581ZM7 5.00003H5V7.00003H7V5.00003Z"/></svg>

<svg viewBox="0 0 24 24" xmlns="http://www.w3.org/2000/svg"><path fill="none" d="M0 0h24v24H0Z"/><path d="M6 21.5c-1.94 0-3.5-1.57-3.5-3.5 0-1.94 1.56-3.5 3.5-3.5 1.585 0 2.92 1.05 3.35 2.5h5.645v-2h2V9.24l-2.25-2.25H8.98v2h-6v-6h6v2h5.757l3.24-3.25 4.24 4.244 -3.25 3.24v5.75h2v6h-6v-2H9.32c-.43 1.44-1.77 2.5-3.36 2.5Zm0-5c-.83 0-1.5.67-1.5 1.5 0 .82.67 1.5 1.5 1.5 .82 0 1.5-.68 1.5-1.5 0-.83-.68-1.5-1.5-1.5Zm13 .5h-2v2h2v-2ZM18 4.586l-1.42 1.41 1.41 1.41 1.41-1.42 -1.42-1.42Zm-11 .41H5v2h2v-2Z"/></svg>
